X: 21168
T: Kathleen's Favourite
R: jig
M: 6/8
K: Fmajor
|:C|F2 G AFA|GAG F2 c|fef cAF|AGG G2 A|
F2 c fef|afd c2 F|CDF GcB|AFF F2:|
|:c|fef gfg|afd c2 F|CDF AGF|
[1 AGG G2 c|fef gfg|afd c2 F|CDF GcB|AFF F2:|
[2 AGG G2 g|fcf afa|gdg b2 g|afd cAG|AFF F2||

